X: 7199
T: Circus , The
R: jig
M: 6/8
K: Gmajor
|:G3 FGF|E2D DEF|GAG FEF|G2D DEF|
G3 FGF|E2D DEF|GcB AGF|1 G3-G2 G:|2 G3 GAB||
c3 BcB|B2A- A2B|cBA FEF|G2D GAB|
c3 BcB|B2A- A2B|cBA FEF|G2D GAB|
c3 BcB|B2A- A2B|cBA FEF|G2D GAB|
c3 BcB|B2A- A2B|cBA d2B|cBA FEF||

